dist/images/icons/icon-human2.svg

<svg width="66" height="65" viewBox="0 0 66 65" fill="none" xmlns="http://www.w3.org/2000/svg">
<g opacity="0.1">
<rect x="0.75" y="1.2666" width="64.5" height="62.8706" rx="9.75" fill="#D9D9D9"/>
<rect x="0.75" y="1.2666" width="64.5" height="62.8706" rx="9.75" fill="url(#paint0_linear_502_71)"/>
<rect x="0.75" y="1.2666" width="64.5" height="62.8706" rx="9.75" stroke="url(#paint1_linear_502_71)" stroke-width="1.5"/>
</g>
<path d="M38.2095 35.3964L38.2698 35.4761L38.8727 36.2734C38.8727 36.2735 38.8728 36.2735 38.8728 36.2735C39.3449 36.8973 39.6002 37.6579 39.6 38.4397C39.5998 39.2216 39.3441 39.982 38.8717 40.6057L38.8717 40.6057L38.2677 41.4021L38.2074 41.4816L38.1278 41.4215L36.5328 40.218L36.4527 40.1576L36.5133 40.0777L37.1173 39.2814L38.2095 35.3964ZM38.2095 35.3964L38.1298 35.4566M38.2095 35.3964L38.1298 35.4566M38.1298 35.4566L36.5348 36.6601L36.4549 36.7204L36.5152 36.8003L37.1172 37.5967L37.1173 37.5967M38.1298 35.4566L37.1173 37.5967M37.1173 37.5967C37.301 37.8393 37.4004 38.135 37.4004 38.4391C37.4004 38.743 37.301 39.0388 37.1173 39.2813L37.1173 37.5967ZM41.0627 33.3723L41.0025 33.2927L40.9228 33.3528L39.3268 34.5553L39.2468 34.6157L39.3073 34.6956L39.9103 35.4919C40.5528 36.3411 40.9003 37.3763 40.8999 38.4404C40.8996 39.5044 40.5514 40.5393 39.9083 41.3881L39.9083 41.3881L39.3053 42.1845L39.2448 42.2644L39.3248 42.3247L40.9198 43.5283L40.9995 43.5884L41.0597 43.5088L41.6627 42.7125C41.6627 42.7125 41.6627 42.7125 41.6627 42.7124C42.5945 41.4826 43.099 39.983 43.0996 38.4411C43.1001 36.8992 42.5967 35.3992 41.6657 34.1687L41.6657 34.1687L41.0627 33.3723ZM35.15 40.4365V40.3365H35.05H26.1013C26.1269 39.3406 26.5345 38.3909 27.2422 37.6846C27.9736 36.9547 28.9656 36.5446 30 36.5446H35H35.1V36.4446V34.4486V34.3486H35H30C28.3822 34.3486 26.8307 34.9899 25.6867 36.1316C24.5427 37.2733 23.9 38.8218 23.9 40.4365V42.4325V42.5325H24H35.05H35.15V42.4325V40.4365ZM31.0958 25.5625C31.7334 24.9262 32.5982 24.5686 33.5 24.5686C34.4018 24.5686 35.2666 24.9262 35.9042 25.5625C36.5418 26.1988 36.9 27.0618 36.9 27.9616C36.9 28.8614 36.5418 29.7244 35.9042 30.3607C35.2666 30.9971 34.4018 31.3546 33.5 31.3546C32.5982 31.3546 31.7334 30.9971 31.0958 30.3607C30.4582 29.7244 30.1 28.8614 30.1 27.9616C30.1 27.0618 30.4582 26.1988 31.0958 25.5625ZM29.5403 24.0096C28.49 25.0577 27.9 26.4793 27.9 27.9616C27.9 29.444 28.49 30.8656 29.5403 31.9137C30.5905 32.9618 32.0149 33.5506 33.5 33.5506C34.9851 33.5506 36.4095 32.9618 37.4597 31.9137C38.51 30.8656 39.1 29.444 39.1 27.9616C39.1 26.4793 38.51 25.0577 37.4597 24.0096C36.4095 22.9614 34.9851 22.3727 33.5 22.3727C32.0149 22.3727 30.5905 22.9614 29.5403 24.0096Z" fill="#BAE9F1" stroke="#BAE9F1" stroke-width="0.2"/>
<defs>
<linearGradient id="paint0_linear_502_71" x1="33" y1="0.516602" x2="52.0311" y2="87.7714" gradientUnits="userSpaceOnUse">
<stop stop-color="#2C4262"/>
<stop offset="1" stop-color="#202F45"/>
</linearGradient>
<linearGradient id="paint1_linear_502_71" x1="33" y1="0.516602" x2="33" y2="64.8872" gradientUnits="userSpaceOnUse">
<stop stop-color="white"/>
<stop offset="1" stop-color="white" stop-opacity="0"/>
</linearGradient>
</defs>
</svg>

<svg width="66" height="65" fill="none" xmlns="http://www.w3.org/2000/svg"><g opacity=".1"><rect x=".75" y="1.267" width="64.5" height="62.871" rx="9.75" fill="#D9D9D9"/><rect x=".75" y="1.267" width="64.5" height="62.871" rx="9.75" fill="url(#paint0_linear_502_71)"/><rect x=".75" y="1.267" width="64.5" height="62.871" rx="9.75" stroke="url(#paint1_linear_502_71)" stroke-width="1.5"/></g><path d="M38.21 35.396l.06.08.603.797s0 0 0 0a3.588 3.588 0 01-.001 4.333h0l-.604.796-.06.08-.08-.06-1.595-1.204-.08-.06.06-.08.604-.797 1.093-3.885zm0 0l-.08.06m.08-.06l-.08.06m0 0l-1.595 1.204-.08.06.06.08.602.797h0m1.013-2.14l-1.013 2.14m0 0a1.395 1.395 0 010 1.684v-1.684zm3.946-4.225l-.06-.08-.08.06-1.596 1.203-.08.06.06.08.603.797a4.884 4.884 0 01-.002 5.896h0l-.603.797-.06.08.08.06 1.595 1.203.08.06.06-.08.603-.796s0 0 0 0a7.077 7.077 0 00.003-8.543h0l-.603-.797zm-5.913 7.065v-.1h-9.049a3.888 3.888 0 011.141-2.652A3.904 3.904 0 0130 36.545h5.1v-2.196H30c-1.618 0-3.17.64-4.313 1.783a6.082 6.082 0 00-1.787 4.305v2.095h11.25v-2.095zm-4.054-14.874a3.404 3.404 0 014.808 0 3.39 3.39 0 010 4.798 3.403 3.403 0 01-4.808 0 3.39 3.39 0 010-4.799zM29.54 24.01a5.583 5.583 0 000 7.904 5.606 5.606 0 007.92 0 5.583 5.583 0 000-7.904 5.605 5.605 0 00-7.92 0z" fill="#BAE9F1" stroke="#BAE9F1" stroke-width=".2"/><defs><linearGradient id="paint0_linear_502_71" x1="33" y1=".517" x2="52.031" y2="87.771" gradientUnits="userSpaceOnUse"><stop stop-color="#2C4262"/><stop offset="1" stop-color="#202F45"/></linearGradient><linearGradient id="paint1_linear_502_71" x1="33" y1=".517" x2="33" y2="64.887" gradientUnits="userSpaceOnUse"><stop stop-color="#fff"/><stop offset="1" stop-color="#fff" stop-opacity="0"/></linearGradient></defs></svg>
